X:60
T:It Came Upon A Midnight Clear
%%stretchlast false
M:6/8
L:1/4
K:Ab clef=C1
"^I"[A,,E,CE]/ [A,,E,Cc] "^I+"[A,,=E,CG]/ "^ii7³"[A,,F,DB]/ "^IV²"[A,,F,DA]/ | [A,,G,DF]/ "^I"[A,,A,CE] "^♯iii°"[G,,E,DF]/ "^I"[A,,E,CE] | [A,,A,CE]/ "^IV"[D,A,DF]/ "^♯iii"[E,A,DG]/ "^IV¹"[F,A,DA]/ "^♭v°¹"[F,A,=DA]/ "^II7²"[F,A,=DB]/ | "^♯vii°"[B,,A,=Dc]/ "^V"[E,G,EB]3/2 [E,G,EB] | "^v"[E,E]/ "^I"[A,,E,Cc] "^I+"[A,,=E,CG]/ "^ii7³"[A,,F,DB]/ "^IV²"[A,,F,DA]/ | [A,,G,DF]/ "^I"[A,,A,CE] "^♯iii°"[G,,E,DF]/ "^I"[A,,E,CE] | "^v¹"[A,,A,E]/ "^IV"[D,A,DF] "^ii"[B,,B,DF]/ "^V7"[E,B,DG]/ "^♯iii"[E,A,DF]/ | "^♯iii°"[E,G,DE]/ "^iii+"[A,,A,CA]3/2 [A,,A,CA] | "^iii"[C,Cc]/ [C,Cc] "^III"[C,=E,C]/ [C,=E,C]/ "^♯iv"[C,F,C=D]/ | "^III7³"[B,,G,C=E]/ "^vi¹"[A,,F,CF] "^V/vi"[C,=E,CG]/ "^vi"[F,CA] | "^vi¹"[A,,F,Cc]/ "^V²"[B,,G,EB]/ "^iii+"[B,,CEA]/ "^V²"[B,,B,EG]/ "^II7"[B,,A,=DF]/ "^vii¹"[B,,B,=DG]/ | "^II7"[B,,A,=DF]/ "^V"[E,G,E]3/2 [E,G,E] | "^♯iii°"[E,G,DE]/ "^iii+"[A,,A,Cc] "^I+"[A,,=E,CG]/ "^ii7³"[A,,F,DB]/ "^IV²"[A,,F,DA]/ | [A,,G,DF]/ "^I"[A,,A,CE] "^♯iii°"[G,,E,DF]/ "^I"[A,,E,CE] | "^I¹"[C,A,E]/ "^IV"[D,A,DF] "^ii"[B,,B,DF]/ "^V7"[E,B,DG]/ "^♯iii"[E,A,DF]/ | "^♯iii°"[E,G,DE]/ "^iii+"[A,,A,CA]3/2 [A,,A,CA] |]
